findly-builder/apps/searchassist/src/assets/icons/overview/prize.svg

<svg width="17" height="16" viewBox="0 0 17 16" fill="none" xmlns="http://www.w3.org/2000/svg">
<path d="M3.23009 0C1.87913 0 0.768555 1.11058 0.768555 2.46154C0.768555 3.12981 1.07144 3.71635 1.44644 4.28846C1.82144 4.86058 2.29259 5.42789 2.74932 6C3.66279 7.14423 4.46086 8.30769 4.46086 9.23077C4.46086 9.57692 4.19163 9.84615 3.84548 9.84615C3.50561 9.84615 3.23009 10.1217 3.23009 10.4615C3.23009 10.8014 3.50561 11.0769 3.84548 11.0769C4.4849 11.0769 5.05702 10.7404 5.38394 10.2404C5.39836 10.274 5.40317 10.3173 5.41279 10.3462C5.74452 11.3317 6.15798 12.1058 6.72048 12.6683C7.12432 13.0721 7.61952 13.3462 8.15317 13.4663V14.7692H6.30702C5.96715 14.7692 5.69163 15.0447 5.69163 15.3846C5.69163 15.7245 5.96715 16 6.30702 16H11.2301C11.57 16 11.8455 15.7245 11.8455 15.3846C11.8455 15.0447 11.57 14.7692 11.2301 14.7692H9.38394V13.4663C9.91759 13.3462 10.4128 13.0721 10.8166 12.6683C11.3791 12.1058 11.7926 11.3317 12.1195 10.3462C12.1339 10.3173 12.1387 10.274 12.1532 10.2404C12.4801 10.7404 13.0522 11.0769 13.6916 11.0769C14.0315 11.0769 14.307 10.8014 14.307 10.4615C14.307 10.1217 14.0315 9.84615 13.6916 9.84615C13.3455 9.84615 13.0762 9.57692 13.0762 9.23077C13.0762 8.30769 13.8743 7.14423 14.7878 6C15.2445 5.42789 15.7157 4.86058 16.0907 4.28846C16.4657 3.71635 16.7686 3.12981 16.7686 2.46154C16.7686 1.11058 15.658 0 14.307 0C13.4032 0 12.6195 0.5 12.1916 1.23077H5.34548C4.91759 0.5 4.13394 0 3.23009 0ZM3.23009 1.23077C3.91759 1.23077 4.46086 1.77404 4.46086 2.46154H4.47529C4.48971 3.96635 4.55221 5.32692 4.6724 6.52404C4.36952 6.07692 4.03779 5.63942 3.71086 5.23077C3.24452 4.64904 2.79259 4.10096 2.47529 3.61538C2.15798 3.12981 1.99932 2.71635 1.99932 2.46154C1.99932 1.77404 2.54259 1.23077 3.23009 1.23077ZM14.307 1.23077C14.9945 1.23077 15.5378 1.77404 15.5378 2.46154C15.5378 2.71635 15.3791 3.12981 15.0618 3.61538C14.7445 4.10096 14.2926 4.64904 13.8262 5.23077C13.4993 5.63942 13.1676 6.07692 12.8647 6.52404C12.9849 5.32692 13.0474 3.96635 13.0618 2.46154H13.0762C13.0762 1.77404 13.6195 1.23077 14.307 1.23077ZM5.75894 2.46154H11.7782C11.7349 5.71154 11.4849 8.36058 10.9512 9.96154C10.6676 10.8221 10.3118 11.4327 9.95125 11.7933C9.58586 12.1587 9.23009 12.3077 8.76855 12.3077C8.30702 12.3077 7.95125 12.1587 7.58586 11.7933C7.22529 11.4327 6.86952 10.8221 6.58586 9.96154C6.05221 8.36058 5.80221 5.71154 5.75894 2.46154Z" fill="#FFDA2D"/>
<path d="M9.21771 11.6C10.7159 10.9564 11.2301 7.06733 11.2301 3.69238L10.8453 6.77086C10.6942 7.97965 10.2303 9.12807 9.49934 10.1026L8.86086 10.9539C8.80094 11.0338 8.76855 11.131 8.76855 11.2308C8.76855 11.4857 8.9835 11.7006 9.21771 11.6Z" fill="#FFED96"/>
</svg>

<svg width="17" height="16" fill="none" xmlns="http://www.w3.org/2000/svg"><path d="M3.23 0A2.473 2.473 0 0 0 .77 2.462c0 .668.302 1.254.677 1.826.375.573.847 1.14 1.303 1.712.914 1.144 1.712 2.308 1.712 3.23 0 .347-.27.616-.616.616a.615.615 0 0 0 0 1.23c.64 0 1.212-.336 1.539-.836.014.034.02.077.029.106.332.986.745 1.76 1.307 2.322a2.94 2.94 0 0 0 1.433.798v1.303H6.307a.615.615 0 1 0 0 1.231h4.923a.615.615 0 1 0 0-1.23H9.384v-1.304a2.94 2.94 0 0 0 1.433-.798c.562-.562.976-1.336 1.303-2.322.014-.029.019-.072.033-.106.327.5.9.837 1.539.837a.615.615 0 1 0 0-1.23.608.608 0 0 1-.616-.616c0-.923.798-2.087 1.712-3.231.457-.572.928-1.14 1.303-1.712.375-.572.678-1.158.678-1.826A2.473 2.473 0 0 0 14.307 0c-.904 0-1.688.5-2.115 1.23H5.345A2.455 2.455 0 0 0 3.23 0Zm0 1.23c.688 0 1.23.544 1.23 1.232h.015a45.62 45.62 0 0 0 .197 4.062 20.495 20.495 0 0 0-.961-1.293c-.466-.582-.918-1.13-1.236-1.616C2.158 3.13 2 2.716 2 2.462c0-.688.544-1.231 1.231-1.231Zm11.077 0c.688 0 1.23.544 1.23 1.232 0 .254-.158.668-.475 1.153-.317.486-.77 1.034-1.236 1.616a20.35 20.35 0 0 0-.961 1.293 45.61 45.61 0 0 0 .197-4.062h.014a1.22 1.22 0 0 1 1.231-1.231ZM5.759 2.463h6.02c-.044 3.25-.294 5.899-.828 7.5-.283.86-.64 1.47-1 1.831-.365.366-.72.515-1.182.515-.462 0-.818-.15-1.183-.515-.36-.36-.716-.97-1-1.831-.534-1.601-.784-4.25-.827-7.5Z" fill="#FFDA2D"/><path d="M9.218 11.6c1.498-.644 2.012-4.533 2.012-7.908l-.385 3.079A7 7 0 0 1 9.5 10.103l-.638.85a.462.462 0 0 0-.092.278c0 .255.214.47.449.369Z" fill="#FFED96"/></svg>
